X:7002
T:Hessian's Dance,The. BC.43
M:3/8
L:1/8
Q:30
S:Benjamin Cooke MS.circa 1770, F.Kidson Coll.
R:Misc.
Z:vmp.John Bagnall
K:G
gdB| G>AG | DEF | G/F/G/A/G |gdB | G>AG| DEF | G3 |!
|def | g2e | f/g/a/g/f/e/ | dDD | def | g2 c | BA/G/A/F/ | G2 g |!
| d2 e | B2 c | AGF | GDg | d2 e | B2 c AGF | G2 g |]
